!!!COM: Music21
!!!OTL: polka_Idbury-Hill
!!!OMV: polka_Idbury-Hill
**kern
*clefG2
*k[f#c#]
*M2/4
=1
16bLL
32bL
32cc#J
16.dd
32bJJk
=
32aLLL
32g
32f#
32eJ
16d
32eL
32f#JJJ
4ryy
=
16gLL
16b
32bL
32a
32g
32f#JJJ
4ryy
=
8eL
8eJ
4ryy
=||
*M2/4
16bLL
32bL
32cc#J
16.dd
32bJJk
=
32aLLL
32g
32f#
32eJ
16d
32eL
32f#JJJ
4ryy
!!linebreak:original
=
16gLL
16b
32bL
32a
32g
32f#JJJ
4ryy
=
8eL
8eJ
4ryy
=||
16bLL
32bL
32cc#J
16dd
16bJJ
4ryy
=
32eeLLL
32dd
32cc#
32bJJ
8aJ
4ryy
=
16bLL
32bL
32cc#J
16dd
16bJJ
4ryy
=
16.eeLL
32ddJK
8bJ
4ryy
=
16bLL
32bL
32cc#J
16.dd
32bJJk
4ryy
!!linebreak:original
=
32aLLL
32g
32f#
32eJ
16d
32eL
32f#JJJ
4ryy
=
16gLL
16b
32bL
32a
32g
32f#JJJ
4ryy
=
8eL
8eJ
4ryy
=||
16bLL
32bL
32cc#J
16dd
16bJJ
4ryy
=
32eeLLL
32dd
32cc#
32bJJ
8aJ
4ryy
=
16bLL
32bL
32cc#J
16dd
16bJJ
4ryy
=
16.eeLL
32ddJK
8bJ
4ryy
!!linebreak:original
=
16bLL
32bL
32cc#J
16.dd
32bJJk
4ryy
=
32aLLL
32g
32f#
32eJ
16d
32eL
32f#JJJ
4ryy
=
16gLL
16b
32bL
32a
32g
32f#JJJ
4ryy
=
8eL
8eJ
4ryy
=||
*-
